X:1
T:Hornsey, 87.83
T:Hornsey, 87.83
T:Samuel Sebastian Wesley, 1872
T:Public Domain Courtesy of the Cyber Hymnal™
C:Samuel Sebastian Wesley, 1872
Z:Public Domain
Z:Courtesy of the Cyber Hymnal™
%%score ( 1 2 ) ( 3 4 )
L:1/8
Q:1/4=110
M:4/4
K:G
V:1 treble 
V:2 treble 
V:3 bass 
V:4 bass 
V:1
 D2 D2 [EG]2 [GB]2 | [GA]2 [FB]2 [Gc]2 [Ad]2 | [DB]2 (AG) [EA]2 [Dd]2 | [DE]2 [^CG]2 [DF]4 | %4
 [DB]2 [Ee]2 [Ae]2 [Ad]2 | G2 [Gc]2 [Gc]2 [=FB]2 | E4 F4 | [DG]8 |] %8
V:2
 D2 D2 x4 | x8 | x2 E2 x4 | x8 | x8 | G2 x6 | E4 (E2 D2) | x8 |] %8
V:3
 [G,B,]2 [F,A,]2 [E,B,]2 [D,D]2 | [C,E]2 [D,D]2 (CB,) [F,A,]2 | [G,B,]2 [G,B,]2 [F,A,]2 F,2 | %3
 [G,,B,]2 [A,,A,]2 [D,A,]4 | [G,B,]2 [G,B,]2 [F,A,]2 [B,,D]2 | [E,D]2 [E,C]2 [D,=F,]2 [G,,B,]2 | %6
 (B,2 A,2) (A,3 C) | [G,,B,]8 |] %8
V:4
 x8 | x4 E,2 x2 | x6 (B,,A,,) | x8 | x8 | x8 | C,4 D,4 | x8 |] %8

